X: 2
T: Smith's Reel #2
M:C|
L:1/8
S:Bruce Molsky, based on the 1935 recording by Bob Wills
Z:AK/Fiddler’s Companion http://www.ibiblio.org/fiddlers/SMA_SNY.htm
N:With parts reversed, AKA "Kitty's Wedding", Belle(s) of Lexington, et al.
K:D
fg | "D"afbf afde | "(G)"fafd "(A7)"edBc | "D"dedB ABde | fafd "A7"e2fg |
   | "D"afbf afde | "(G)"fafd "(A7)"edBc | "D"dedB ABde | "A7"fdec "D"d2 :|
|:   "D"[GA][A2A2][AA] [A2A2][A2A2] | "(G)"BABc "D"BA[FA][DA] | [A2A2] [AA][AA] ABde | fedf "A7"edB2 |
   | "D"[D4A4] [DA][D2A2][DA] | "(G)"BABc "D"BAFD | EA2d Bde(f | "A7"f)dec "D"d4 :|


%%sep 5 1 500

%%sep 1 1 500

